packages/icons/raw/imported/TextAttach.svg

<svg width="32" height="32" viewBox="0 0 32 32" fill="none" xmlns="http://www.w3.org/2000/svg">
<path d="M13.6081 19.255C13.4129 19.4503 13.4129 19.7669 13.6081 19.9621C13.8034 20.1574 14.12 20.1574 14.3152 19.9621L13.6081 19.255ZM9.16219 14.2729C8.96692 14.4681 8.96692 14.7847 9.16219 14.98C9.35745 15.1752 9.67403 15.1752 9.86929 14.98L9.16219 14.2729ZM9.83067 19.0255L9.47894 18.6701L9.47712 18.672L9.83067 19.0255ZM15.8407 13.0772L16.1924 13.4326L16.1942 13.4308L15.8407 13.0772ZM14.3152 19.9621L18.5204 15.757L17.8133 15.0499L13.6081 19.255L14.3152 19.9621ZM9.86929 14.98L15.7853 9.064L15.0782 8.35689L9.16219 14.2729L9.86929 14.98ZM14.8983 24.0931L22.8563 16.1351L22.1492 15.428L14.1912 23.386L14.8983 24.0931ZM10.1824 19.3809L16.1924 13.4326L15.4889 12.7219L9.47894 18.6702L10.1824 19.3809ZM16.1942 13.4308C16.711 12.914 17.4437 12.9137 17.8716 13.3416L18.5787 12.6345C17.7048 11.7607 16.3365 11.8743 15.4871 12.7237L16.1942 13.4308ZM17.8716 13.3416C18.3113 13.7814 18.3174 14.5458 17.8133 15.0499L18.5204 15.757C19.3825 14.8949 19.4407 13.4966 18.5787 12.6345L17.8716 13.3416ZM15.7853 9.064C17.6555 7.19376 20.5827 7.14762 22.3241 8.88909L23.0312 8.18198C20.8675 6.0182 17.3064 6.12869 15.0782 8.35689L15.7853 9.064ZM22.3241 8.88909C24.0656 10.6306 24.0195 13.5577 22.1492 15.428L22.8563 16.1351C25.0845 13.9069 25.195 10.3458 23.0312 8.18198L22.3241 8.88909ZM14.1912 23.386C13.004 24.5732 11.1582 24.5932 10.0676 23.5026L9.36051 24.2097C10.8734 25.7226 13.3531 25.6383 14.8983 24.0931L14.1912 23.386ZM10.0676 23.5026C8.97702 22.412 8.99705 20.5662 10.1842 19.3791L9.47712 18.672C7.93199 20.2171 7.8476 22.6968 9.36051 24.2097L10.0676 23.5026Z" fill="black"/>
</svg>

<svg width="32" height="32" fill="none" xmlns="http://www.w3.org/2000/svg"><path d="M13.608 19.255a.5.5 0 0 0 .707.707l-.707-.707Zm-4.446-4.982a.5.5 0 1 0 .707.707l-.707-.707Zm.669 4.753-.352-.356-.002.002.354.354Zm6.01-5.949.351.356.002-.002-.353-.354Zm-1.526 6.885 4.205-4.205-.707-.707-4.205 4.205.707.707ZM9.87 14.98l5.916-5.916-.707-.707-5.916 5.916.707.707Zm5.03 9.113 7.957-7.958-.707-.707-7.958 7.958.707.707Zm-4.717-4.712 6.01-5.948-.703-.711-6.01 5.948.703.71Zm6.012-5.95c.517-.517 1.25-.517 1.678-.09l.707-.707c-.874-.873-2.242-.76-3.092.09l.707.707Zm1.678-.09c.44.44.445 1.205-.059 1.709l.707.707c.863-.862.92-2.26.059-3.123l-.707.708Zm-2.087-4.277c1.87-1.87 4.798-1.916 6.54-.175l.706-.707c-2.163-2.164-5.725-2.053-7.953.175l.707.707Zm6.54-.175c1.74 1.742 1.695 4.669-.176 6.539l.707.707c2.228-2.228 2.339-5.79.175-7.953l-.707.707ZM14.19 23.386c-1.187 1.187-3.033 1.207-4.123.117l-.707.707c1.512 1.513 3.992 1.428 5.537-.117l-.707-.707Zm-4.123.117c-1.091-1.091-1.07-2.937.116-4.124l-.707-.707c-1.545 1.545-1.63 4.025-.116 5.538l.707-.707Z" fill="#000"/></svg>
